X: 3398
T: Bernie Oldrid's Boots
R: polka
M: 2/4
K: Gmajor
|:de/d/ BG|FA- AB|cd/c/ AF|GA B[Cc]|
de/d/ BG|FA AB|cB/c/ eF|G2 G2:|
|:dg- gf/g/|fe e2|A>B cd|ed d/c/B/c/|
dg gf/g/|fe e2|AB cA|GF G2:|

